X:1
T:Dance Ti' THy Daddy
M:3/4
L:1/8
K:Bb
 F| BBB GF D| Ccc BA F/2F/2| BBB GF D| B,BB A B2| d2 dc df| c2 cB Ac|\
 d2 dc df| FBB A B2| BBB GF D| Ccc BA F| BBB GF D| B,BB A B2|||
